X: 1037
T: Hicaz-Hümâyûn Sazsemâîsi
C: Tanburî İsak
O: Turkey
F: http://compmusic.upf.edu/node/140
N: hicaz-humayun--sazsemaisi--aksaksemai----tanburi_isak
N: makam= hicaz-humayun
N: form= sazsemaisi
N: usul= aksaksemai = 10/8
M: 10/8
L: 1/16
K: C _7/8B ^c  
Q: 1/4=150
%%MIDI tuningsystem comma53
edcd c2=B4cd c2d4z2  | e3f g2a4a2 g2f4e2  | \
w:   |   | 
d4 d2e2 d2dc =B2c4z2  | 
w:   | 
d4 e2d2 c2d2 e2^f4g2  | e3^f g2f4a2 _1/4b2a2 g2f2  | \
w:   |   | 
e4 d2c2 d2ed e^fd4z2  | 
w:   | 
d4 e2ed c2c2 d2c2 B2c2  | A4 A2B4G3BA2 B2c2  | \
w:   |   | 
d4 c2d2 c2d2 e2d2 g2^f2  | 
w:   | 
e2d2 c2B2 c2B4A4B2  | c2B2 A2G4B4A4z2  | \
w:   |   | 
A4 g2^f2 g2a2 g2f4e2  | 
w:   | 
d4 d2e4ed c2d4z2  | d4 e2d4d2 e2d2 c2d2  | \
w:   |   | 
c2Bc dcB4cB A2G4z2  | 
w:   | 
A4 B2c4c2 B2d4c2  | e4 d2^f4f2 e2g4f2  | \
w:   |   | 
a4 g2^f3gf2 e2d4z2  | 
w:   | 
=c'4 _1/4b2a4g2 ^fed4z2  | e2fe edc4c2 d2e4d2  | \
w:   |   | 
e3f g2a4a2 g2f4e2  | 
w:   | 
d4 d2c3ded e^fd4z2  | d4 e2ed c2c2 d2c2 B2c2  | \
w:   |   | 
A4 A2B4G3BA2 B2c2  | 
w:   | 
d4 c2d2 c2d2 e2d2 g2^f2  | e2d2 c2B2 c2B4A4B2  | \
w:   |   | 
c2B2 A2G4B4A4z2  | 
w:   | 
A4 a2^g4a4g4^1/4f2  | ^1/4f2ef e2d4e3fc2 d2d2  | \
w:   |   | 
e4 ^1/4f2^g4a4=b2 =c'2b2  | 
w:   | 
a4 ^g2^1/4f3ga2 =b2a4z2  | a4 ^g2a3_b=c'2 d'2c'4_7/8b2  | \
w:   |   | 
a4 g2^f3gf2 e2d4gf  | 
w:   | 
e4 eee2 d2^f2 e2f4g2  | e4 ^f2g2 f2a2 _1/4b2a2 g2f2  | \
w:   |   | 
e4 d2c2 d2ed e^fd4z2  | 
w:   | 
d4 e2ed c2c2 d2c2 B2c2  | A4 A2B4G3BA2 B2c2  | \
w:   |   | 
d4 c2d2 c2d2 e2d2 g2^f2  | 
w:   | 
e2d2 c2B2 c2B4A4B2  | c2B2 A2G4B4A4z2  | \
w:   |   | 
^f2gf _e2f4d2 e2f4z2  | 
w:   | 
d2_e2 d2c4d2 e^fd4c2  | d4 _e2^f2 g2a2 g2f4e2  | \
w:   |   | 
d4 c2d4_e4^f4g2  | 
w:   | 
a2_ba g2^f4_e2 d2f4z2  | _e4 d2c2 d2e2 ^f2d4z2  | \
w:   |   | 
d4 c2d4_e4^f4g2  | 
w:   | 
a2_ba g2^f4_e2 d2f4z2  | _e4 d2c2 d2e2 ^f2d4z2  | \
w:   |   | 
d4 g2^f4g2 f2_e2 f2ef3ff f2e2 g2f2 e2d2 e2d2  | 
w:   | 
_e2ee e2d2 ^f2e2 d4 c2d4e2 f4 d4 f4 e2f4ff f2e2 g2f2 e2d2 e2d2  | 
w:   | 
_e2e2 e2d2 ^f2e2 d4 c2d4d2 c4 B4 A4 G2d4=e2 edc2 c2d2 c2B2 c2A4A2 B4 G3B A2B2 c2d4c2 d2c2 d2e2 d2g2 f2e2  | 
w:   | 
d2c2 B2c2 B4 A4 B2c2  | B2A2 G4 B4 A4 z2|
w:   |   | 


